flaticon/constructions/gas-pipe-1.svg

<svg xmlns="http://www.w3.org/2000/svg" width="32" height="32" viewBox="0 0 24 24">
    <path d="M 20.277344 5.585938 L 16.511719 5.585938 C 16.277344 5.085938 15.964844 4.628906 15.589844 4.234375 C 15.570312 4.199219 15.546875 4.167969 15.515625 4.136719 C 15.488281 4.109375 15.457031 4.085938 15.421875 4.066406 C 14.53125 3.214844 13.324219 2.691406 12 2.691406 C 10.007812 2.691406 8.277344 3.878906 7.488281 5.585938 L 3.722656 5.585938 C 1.65625 5.585938 0 7.242188 0 9.308594 L 0 20.898438 C 0 21.144531 0.164062 21.308594 0.414062 21.308594 L 3.722656 21.308594 C 3.972656 21.308594 4.136719 21.144531 4.136719 20.898438 L 4.136719 10.46875 C 4.136719 10.054688 4.511719 9.683594 4.964844 9.683594 L 7.46875 9.683594 C 7.703125 10.199219 8.023438 10.671875 8.410156 11.078125 C 8.429688 11.113281 8.453125 11.144531 8.484375 11.171875 C 8.515625 11.207031 8.550781 11.230469 8.585938 11.25 C 9.476562 12.097656 10.679688 12.621094 12 12.621094 C 13.320312 12.621094 14.523438 12.097656 15.414062 11.25 C 15.449219 11.230469 15.484375 11.207031 15.515625 11.171875 C 15.546875 11.144531 15.570312 11.113281 15.589844 11.078125 C 15.964844 10.683594 16.277344 10.226562 16.511719 9.722656 L 19.035156 9.722656 C 19.449219 9.722656 19.863281 10.136719 19.863281 10.550781 L 19.863281 20.898438 C 19.863281 21.144531 20.027344 21.308594 20.277344 21.308594 L 23.585938 21.308594 C 23.835938 21.308594 24 21.144531 24 20.898438 L 24 9.308594 C 24 7.242188 22.34375 5.585938 20.277344 5.585938 Z M 15.199219 10.273438 L 13.421875 8.5 C 13.570312 8.25 13.65625 7.960938 13.65625 7.65625 C 13.65625 7.367188 13.582031 7.09375 13.449219 6.859375 L 15.203125 5.042969 C 15.457031 5.355469 15.667969 5.703125 15.824219 6.078125 C 15.828125 6.121094 15.835938 6.167969 15.847656 6.207031 C 16.050781 6.65625 16.136719 7.183594 16.136719 7.671875 C 16.132812 8.65625 15.78125 9.5625 15.199219 10.273438 Z M 12.578125 8.234375 C 12.566406 8.25 12.550781 8.265625 12.539062 8.28125 C 12.394531 8.40625 12.207031 8.484375 12 8.484375 C 11.792969 8.484375 11.605469 8.40625 11.460938 8.28125 C 11.449219 8.265625 11.433594 8.25 11.421875 8.234375 C 11.40625 8.21875 11.390625 8.207031 11.375 8.195312 C 11.25 8.050781 11.171875 7.859375 11.171875 7.65625 C 11.171875 7.460938 11.242188 7.28125 11.355469 7.136719 C 11.363281 7.132812 11.371094 7.125 11.378906 7.117188 C 11.398438 7.097656 11.414062 7.078125 11.425781 7.058594 C 11.578125 6.917969 11.777344 6.828125 12 6.828125 C 12.222656 6.828125 12.421875 6.917969 12.574219 7.058594 C 12.585938 7.078125 12.601562 7.097656 12.621094 7.117188 C 12.628906 7.125 12.636719 7.132812 12.644531 7.136719 C 12.757812 7.28125 12.828125 7.460938 12.828125 7.65625 C 12.828125 7.859375 12.75 8.050781 12.625 8.195312 C 12.609375 8.207031 12.59375 8.21875 12.578125 8.234375 Z M 8.800781 10.273438 C 8.542969 9.957031 8.328125 9.597656 8.167969 9.214844 C 8.164062 9.191406 8.160156 9.167969 8.152344 9.144531 C 8.113281 9.0625 8.082031 8.980469 8.050781 8.894531 C 7.9375 8.535156 7.875 8.15625 7.863281 7.765625 C 7.863281 7.765625 7.863281 7.761719 7.863281 7.761719 C 7.863281 7.726562 7.863281 7.691406 7.863281 7.65625 C 7.863281 7.621094 7.863281 7.585938 7.863281 7.550781 C 7.863281 7.546875 7.863281 7.546875 7.863281 7.546875 C 7.890625 6.589844 8.242188 5.710938 8.8125 5.023438 L 10.550781 6.855469 C 10.421875 7.09375 10.34375 7.367188 10.34375 7.65625 C 10.34375 7.960938 10.429688 8.25 10.578125 8.5 Z M 14.625 4.460938 L 12.886719 6.261719 C 12.632812 6.097656 12.328125 6 12 6 C 11.675781 6 11.371094 6.09375 11.113281 6.257812 L 9.394531 4.445312 C 10.109375 3.867188 11.015625 3.515625 12 3.515625 C 12.992188 3.515625 13.910156 3.871094 14.625 4.460938 Z M 4.964844 8.898438 C 4.054688 8.898438 3.308594 9.640625 3.308594 10.511719 L 3.308594 20.484375 L 0.828125 20.484375 L 0.828125 9.308594 C 0.828125 7.695312 2.109375 6.414062 3.722656 6.414062 L 7.191406 6.414062 C 7.167969 6.503906 7.148438 6.597656 7.128906 6.6875 C 7.070312 6.96875 7.042969 7.246094 7.035156 7.527344 C 7.035156 7.570312 7.035156 7.613281 7.035156 7.65625 C 7.035156 7.699219 7.035156 7.742188 7.035156 7.785156 C 7.042969 8.0625 7.070312 8.34375 7.128906 8.621094 C 7.148438 8.714844 7.167969 8.804688 7.191406 8.894531 L 4.964844 8.894531 Z M 9.382812 10.851562 L 11.15625 9.078125 C 11.402344 9.226562 11.691406 9.308594 12 9.308594 C 12.308594 9.308594 12.597656 9.226562 12.84375 9.078125 L 14.617188 10.851562 C 13.902344 11.441406 12.992188 11.792969 12 11.792969 C 11.007812 11.792969 10.097656 11.441406 9.382812 10.851562 Z M 23.171875 20.484375 L 20.691406 20.484375 L 20.691406 10.550781 C 20.691406 9.683594 19.902344 8.898438 19.035156 8.898438 L 16.808594 8.898438 C 16.832031 8.804688 16.851562 8.714844 16.871094 8.621094 C 16.929688 8.34375 16.957031 8.0625 16.964844 7.785156 C 16.964844 7.742188 16.964844 7.699219 16.964844 7.65625 C 16.964844 7.613281 16.964844 7.570312 16.964844 7.527344 C 16.957031 7.246094 16.929688 6.96875 16.871094 6.6875 C 16.851562 6.597656 16.832031 6.503906 16.808594 6.414062 L 20.277344 6.414062 C 21.890625 6.414062 23.171875 7.695312 23.171875 9.308594 Z M 23.171875 20.484375"/>
</svg>

<svg xmlns="http://www.w3.org/2000/svg" width="32" height="32" viewBox="0 0 24 24">
    <path d="M20.277 5.586h-3.765a5.114 5.114 0 0 0-.922-1.352.43.43 0 0 0-.168-.168A4.94 4.94 0 0 0 12 2.691a4.981 4.981 0 0 0-4.512 2.895H3.723A3.71 3.71 0 0 0 0 9.309v11.59c0 .246.164.41.414.41h3.309c.25 0 .414-.164.414-.41v-10.43c0-.414.375-.785.828-.785h2.504c.234.515.554.988.941 1.394.02.035.043.067.074.094a.373.373 0 0 0 .102.078A4.942 4.942 0 0 0 12 12.621c1.32 0 2.523-.523 3.414-1.371a.373.373 0 0 0 .102-.078.342.342 0 0 0 .074-.094c.375-.394.687-.851.922-1.355h2.523c.414 0 .828.414.828.828v10.347c0 .247.164.41.414.41h3.309c.25 0 .414-.163.414-.41V9.308a3.71 3.71 0 0 0-3.723-3.722zM15.2 10.273L13.422 8.5c.148-.25.234-.54.234-.844 0-.289-.074-.562-.207-.797l1.754-1.816c.254.312.465.66.621 1.035.004.043.012.09.024.129.203.45.289.977.289 1.465a4.123 4.123 0 0 1-.938 2.601zm-2.62-2.039l-.04.047a.822.822 0 0 1-1.078 0l-.04-.047c-.015-.015-.03-.027-.046-.039a.83.83 0 0 1-.203-.539c0-.195.07-.375.183-.52A.844.844 0 0 1 12 6.828c.223.001.422.091.574.232a.308.308 0 0 0 .07.078.841.841 0 0 1 .184.52.83.83 0 0 1-.203.538c-.016.012-.031.024-.047.04zM8.8 10.274a4.323 4.323 0 0 1-.633-1.06c-.004-.023-.008-.046-.016-.07a2.789 2.789 0 0 1-.101-.25 4.165 4.165 0 0 1-.188-1.128v-.004-.106-.105-.004a4.13 4.13 0 0 1 .95-2.524l1.738 1.832a1.684 1.684 0 0 0-.207.801c0 .305.086.594.234.844zm5.824-5.813l-1.738 1.8a1.647 1.647 0 0 0-1.773-.004l-1.72-1.812A4.135 4.135 0 0 1 12 3.515c.992 0 1.91.356 2.625.946zm-9.66 4.437c-.91 0-1.656.743-1.656 1.614v9.972H.829V9.31a2.876 2.876 0 0 1 2.894-2.895H7.19a4.726 4.726 0 0 0-.156 1.113v.258a4.683 4.683 0 0 0 .156 1.11H4.965zm4.418 1.954l1.773-1.774c.246.149.535.23.844.23.309 0 .598-.081.844-.23l1.773 1.774a4.094 4.094 0 0 1-2.617.941 4.094 4.094 0 0 1-2.617-.941zm13.789 9.632h-2.48v-9.933c0-.867-.79-1.653-1.657-1.653H16.81c.023-.093.043-.183.062-.277.059-.277.086-.559.094-.836v-.129-.129a4.726 4.726 0 0 0-.094-.84c-.02-.09-.039-.183-.062-.273h3.468a2.876 2.876 0 0 1 2.895 2.895zm0 0"/>
</svg>
